icon-svg/iris.svg

<?xml version="1.0" encoding="UTF-8"?>
<svg width="32px" height="32px" viewBox="0 0 32 32" version="1.1" fill="#44739e" xmlns="http://www.w3.org/2000/svg" xmlns:xlink="http://www.w3.org/1999/xlink">
            <path d="M25.5963714,18.3262574 C24.0613714,17.8292574 21.8043714,16.3522574 18.7423714,13.2892574 C16.2863714,10.8352574 14.3593714,8.12425745 13.7353714,6.45925745 C13.6003714,6.09925745 13.9233714,5.73225745 14.3003714,5.80525745 C14.6873714,5.88025745 15.2163714,6.04225745 15.9033714,6.36225745 C17.7513714,7.22225745 19.4493714,8.34025745 21.5703714,10.4612574 C23.6913714,12.5822574 24.8083714,14.2792574 25.6683714,16.1282574 C25.9953714,16.8292574 26.1583714,17.3652574 26.2303714,17.7552574 C26.2983714,18.1232574 25.9523714,18.4412574 25.5963714,18.3262574 M22.0383714,22.5102574 C21.9703714,22.7212574 21.7743714,22.8552574 21.5633714,22.8552574 C21.5123714,22.8552574 21.4603714,22.8472574 21.4093714,22.8312574 C20.0353714,22.3872574 18.3243714,21.2742574 16.3833714,19.5782574 C14.0863714,20.8372574 10.3313714,22.3272574 10.4283714,22.9692574 C10.6143714,24.1962574 9.87837144,24.8752574 8.49237144,23.4892574 C7.10737144,22.1032574 7.78537144,21.3682574 9.01437144,21.5542574 C9.65837144,21.6512574 11.1553714,17.8472574 12.4203714,15.5552574 C10.9113714,13.7592574 9.71737144,11.9542574 9.23437144,10.6642574 C9.13637144,10.4052574 9.26837144,10.1172574 9.52637144,10.0202574 C9.78237144,9.92025745 10.0723714,10.0542574 10.1693714,10.3122574 C10.8013714,11.9972574 12.7673714,14.6712574 15.0623714,16.9662574 C18.4343714,20.3382574 20.5423714,21.4992574 21.7173714,21.8802574 C21.9803714,21.9652574 22.1233714,22.2472574 22.0383714,22.5102574 M27.2473714,15.7312574 C25.3283714,11.6092574 20.4093714,6.65425745 16.3353714,4.73925745 C14.6743714,3.95925745 13.4353714,3.82225745 12.6833714,4.20725745 C12.5903714,4.26525745 12.4993714,4.33025745 12.4083714,4.39025745 C11.4013714,5.05525745 10.4263714,5.82625745 9.52137144,6.73025745 C3.88037144,12.3602574 1.65337144,19.2642574 7.21737144,24.8192574 C12.7083714,30.3022574 19.6983714,28.1502574 25.3373714,22.5192574 C26.2293714,21.6302574 26.9913714,20.6742574 27.6493714,19.6852574 C27.6903714,19.6242574 27.7323714,19.5632574 27.7723714,19.5022574 C28.1853714,18.7422574 28.0513714,17.4582574 27.2473714,15.7312574"></path>
</svg>

<svg xmlns="http://www.w3.org/2000/svg" fill="#44739e" viewBox="0 0 24 24"><path d="M25.5964 18.3263c-1.535-.497-3.792-1.974-6.854-5.037-2.456-2.454-4.383-5.165-5.007-6.83-.135-.36.188-.727.565-.654.387.075.916.237 1.603.557 1.848.86 3.546 1.978 5.667 4.099s3.238 3.818 4.098 5.667c.327.701.49 1.237.562 1.627.068.368-.278.686-.634.571m-3.558 4.184a.499.499 0 0 1-.475.345.52.52 0 0 1-.154-.024c-1.374-.444-3.085-1.557-5.026-3.253-2.297 1.259-6.052 2.749-5.955 3.391.186 1.227-.55 1.906-1.936.52-1.385-1.386-.707-2.121.522-1.935.644.097 2.141-3.707 3.406-5.999-1.509-1.796-2.703-3.601-3.186-4.891a.4995.4995 0 0 1 .292-.644c.256-.1.546.034.643.292.632 1.685 2.598 4.359 4.893 6.654 3.372 3.372 5.48 4.533 6.655 4.914.263.085.406.367.321.63m5.209-6.779c-1.919-4.122-6.838-9.077-10.912-10.992-1.661-.78-2.9-.917-3.652-.532-.093.058-.184.123-.275.183-1.007.665-1.982 1.436-2.887 2.34-5.641 5.63-7.868 12.534-2.304 18.089 5.491 5.483 12.481 3.331 18.12-2.3.892-.889 1.654-1.845 2.312-2.834.041-.061.083-.122.123-.183.413-.76.279-2.044-.525-3.771"/></svg>
